X: 1
T:O'Rourkes
M:C
L:1/8
Q:80
C:Arr. by T. Tully
S:Reel
K:HP
|: {g}ed|
{g}c{d}A{g}eA{g}fA{g}eA|
{g}ce{A}ec{g}df{g}ec|  !
{g}cA{gAGAG}A2{g}fd{gdedc}d2|
{g}fage{Gdc}d2:| |:
{g}ef|  !
{gf}g2{a}fde{g}e{A}ef|
gf{g}ed{g}e"flick"a3|
ge{g}fd{g}ed{gdedc}d2|  !
{g}fage{Gdc}d2:|
